X:143
T:La Complainte du Folkloriste
C:Philippe Bruneau
M:6/8
L:1/8
Z:robin.beech@mcgill.ca
R:waltz
K:D
B |: e>fg f>ga | g3/d/B/A/ G2 F | E>FG A>GA | B3-B z B ::g3 e2 g | f3 d2 f |
e>fg fed | e2 B z c | d3 A2 d | e>fg f>ga | g>fe f>ed | e3-e z e :|
